!!!COM: Music21
!!!OTL: Faragulliñas
!!!OMV: pezas_muineiras_faragullinas_faragullinas-partitura.musicxml
**kern
*part1
*staff1
*I"Bagpipes
*I'Bag
*clefG^2
*k[]
*M6/8
=1
!LO:TX:a:B:t=Presto
*MM180
!LO:TX:a:t=[quarter]=180
2r
8eeL
8ffJ
=||
8.ggL
16aaK
8bbJ
8.cccL
16bbK
8cccJ
=
4aa
[8gg
8.ggL]
16eeK
8ffJ
=
8.ggL
16aaK
8bbJ
8.cccL
16bbK
8cccJ
=
2ff
8ddL
8eeJ
=
8.ffL
16ggK
8aaJ
8.bbL
16aaK
8ggJ
!!linebreak:original
=
4gg
[8ff
8.ffL]
16ddK
8eeJ
!!linebreak:original
=
8.ffL
16ggK
8aaJ
8.bbL
16aaK
8ggJ
=
2ee
8eeL
8ffJ
=||
8.ggL
16aaK
8bbJ
8.cccL
16bbK
8cccJ
=
4aa
[8gg
8.ggL]
16eeK
8ffJ
=
8.ggL
16aaK
8bbJ
8.cccL
16bbK
8cccJ
=
2ff
8ddL
8eeJ
!!linebreak:original
=
8.ffL
16ggK
8aaJ
8.bbL
16aaK
8ggJ
=
4gg
[8ff
8.ffL]
16ddK
8eeJ
!!linebreak:original
=
8.ffL
16ggK
8aaJ
8.bbL
16aaK
8ggJ
=
4.ee
8.ggL
16aaK
8ggJ
=||
4gg
8ee
8.ggL
16aaK
8ggJ
=
4gg
8ee
8.ggL
16aaK
8ggJ
=
4gg
8ee
4aa
8gg
=
4.ff
8.ffL
16ggK
8ffJ
!!pagebreak:original
=
4ff
8dd
8.ffL
16ggK
8ffJ
!!linebreak:original
=
4ff
8dd
8.ffL
16ggK
8ffJ
=
4ff
8dd
4gg
8ff
=
4.ee
8.ggL
16aaK
8ggJ
=||
4gg
8ee
8.ggL
16aaK
8ggJ
=
4gg
8ee
8.ggL
16aaK
8ggJ
=
4gg
8ee
4aa
8gg
=
4.ff
8.ffL
16ggK
8ffJ
!!linebreak:original
=
4ff
8dd
8.ffL
16ggK
8ffJ
!!linebreak:original
=
4ff
8dd
8.ffL
16ggK
8ffJ
=
4ff
8dd
4gg
8ff
=
2ee
8eeL
8ffJ
==
*-
!!!system-decoration: s1,s2
